X:59
T: Graf und Nonne (Die Nonne)
N: Q01555
O: Osteuropa, Ungarn
N: Taktart in Taktwechsel geaendert.
R: Ballade, Standesunterschied, vergebliche Werbung, Liebe, Klage
M: 6/8
L: 1/16
K: G
=F2 | _B4B2A4A2 | G6=F4
F2 | d4d2d3dd2c2d2_e2 | d6z4
d2 | g4d2_e2d2c2 | d4_e2d4
c2 | _B2B2B2A4d2 | G6z4

